X:1
T:Henry the Poacher
M:4/4
L:1/4
K:D
 A/2| A F E D| G G F E| C/2 C3/2 C/2 C/2- E| E2 z| G| F3/2 F/2 E D|\
 G2 F D| C/2 C3/2 C3/2 D/2| E2 z| z/2 F/2| G3/2 G/2 G E| F2 D3/2 D/2|\
 A3/2 A/2 E G| F2 z| z/2 D/2| C A A3/2 F/2| G F E D| A, A, G E| D/2- E3/2 A,|\
 A,| F2 G3/2 B/2| A z A F/2D/2| C A, F3/2 E/2| D3||
